build/img/i-edit.svg

<svg width="14" height="14" viewBox="0 0 14 14" fill="none" xmlns="http://www.w3.org/2000/svg">
<path fill-rule="evenodd" clip-rule="evenodd" d="M4.95942 13.2439L11.7933 4.40645C12.1647 3.92988 12.2967 3.3789 12.1729 2.81788C12.0656 2.30787 11.752 1.82293 11.2816 1.45505L10.1343 0.543716C9.13566 -0.250569 7.89765 -0.16696 7.18785 0.744378L6.42028 1.74016C6.32124 1.86474 6.346 2.04868 6.4698 2.14901C6.4698 2.14901 8.40936 3.70414 8.45063 3.73758C8.58268 3.86299 8.68173 4.03021 8.70649 4.23087C8.74775 4.62384 8.47539 4.99172 8.07097 5.04188C7.88114 5.06696 7.69956 5.00844 7.56751 4.89975L5.52891 3.27773C5.42987 3.20332 5.2813 3.2192 5.19877 3.31954L0.353996 9.59021C0.0403655 9.98317 -0.0669294 10.4932 0.0403655 10.9865L0.659374 13.6703C0.692388 13.8125 0.81619 13.9128 0.964752 13.9128L3.68839 13.8794C4.1836 13.871 4.64579 13.6452 4.95942 13.2439ZM8.77314 12.4081H13.2143C13.6476 12.4081 14 12.7651 14 13.204C14 13.6438 13.6476 14 13.2143 14H8.77314C8.33984 14 7.98741 13.6438 7.98741 13.204C7.98741 12.7651 8.33984 12.4081 8.77314 12.4081Z" fill="#FF4E00"/>
</svg>

<svg width="14" height="14" fill="none" xmlns="http://www.w3.org/2000/svg"><path fill-rule="evenodd" clip-rule="evenodd" d="M4.96 13.244l6.833-8.838c.372-.476.504-1.027.38-1.588-.107-.51-.421-.995-.891-1.363L10.134.544c-.998-.795-2.236-.711-2.946.2l-.768.996a.294.294 0 00.05.409s1.94 1.555 1.98 1.589a.816.816 0 01.256.493.735.735 0 01-.635.81.658.658 0 01-.503-.141l-2.04-1.622a.243.243 0 00-.33.042L.355 9.59c-.314.393-.42.903-.314 1.396l.62 2.684a.311.311 0 00.305.243l2.723-.034a1.637 1.637 0 001.271-.635zm3.813-.836h4.441c.434 0 .786.357.786.796a.79.79 0 01-.786.796h-4.44a.791.791 0 01-.787-.796c0-.439.353-.796.786-.796z" fill="#FF4E00"/></svg>
